X: 90
T:Humors of Westport
M:4/4
L:1/8
C:Trad.
S:Arr. Denis Lanctot/transcribed by Chris Ricker R:Reel
Z:Transcribed by Chris Ricker
K:F
cB|AFcF dFcF|AFcA BdcB|AF ~F2 dFcF|BAGA BdcB|!
AF ~F2 dFcF|(3FFF cF BdcB|Acfa gecA|BAGA Bcde||!
&quot; tr&quot;f2 fe fcAc|&quot;tr&quot;fefd efge|&quot; tr&quot;f2 fe fcAc|BAGA Bcde|!
f2 fe fcAc|(3fgf df efgf|af ~f2 afcA|BAGA BdcB||!
AF (3FFF dFcF|(3FFF cF BdcB|AF ~F2 dFcA|BAGA BdcB|!
AF ~F2 CFA,F|AFcF BdcB|Acfa gecA|BAGA Bcde||!
&quot;tr&quot;f2 fe fcAc|(3fgf df efge|&quot;tr&quot;fefg fecA|BAGA Bcde|!
&quot;tr&quot;f2 fe fcAc|&quot;tr&quot;fefd efgf|af ~f2 afcA|BAGA BdcB||!
AF (3FFF dFcF|(3FFF cF BdcB|AF ~F2 dFcA|&quot;tr&quot;BAGA BdcB|!
AF ~F2 dFcF|AFcF BdcB|Acfa gecA|BAGA Bcde||!
&quot;tr&quot;f2 fe fcAc|&quot;tr&quot;fefd efge|&quot;tr&quot;fefg fecA|BAGA Bcde|!
&quot;tr&quot;f2 fe fcAc|&quot;tr&quot;fefd efgf|af ~f2 afcA|BAGA BdcA||F4A4|!
